X:1
T:28.  Fantoches
T:Claude Debussy
T:Paul Verlaine 
T:Copyright © 2009 by the Choral Public Domain Library (http://www.cpdl.org) Edition may be freely distributed, duplicated, performed, or recorded.
T:28.  Fantoches
T:Copyright © 2009 by the Choral Public Domain Library (http://www.cpdl.org) Edition may be freely distributed, duplicated, performed, or recorded.
T:Copyright © 2009 by the Choral Public Domain Library (http://www.cpdl.org) Edition may be freely distributed, duplicated, performed, or recorded.
T:Copyright © 2009 by the Choral Public Domain Library (http://www.cpdl.org) Edition may be freely distributed, duplicated, performed, or recorded.
T:Copyright © 2009 by the Choral Public Domain Library (http://www.cpdl.org) Edition may be freely distributed, duplicated, performed, or recorded.
T:Copyright © 2009 by the Choral Public Domain Library (http://www.cpdl.org) Edition may be freely distributed, duplicated, performed, or recorded.
T:Copyright © 2009 by the Choral Public Domain Library (http://www.cpdl.org) Edition may be freely distributed, duplicated, performed, or recorded.
T:Copyright © 2009 by the Choral Public Domain Library (http://www.cpdl.org) Edition may be freely distributed, duplicated, performed, or recorded.
C:Claude Debussy
Z:Paul Verlaine
Z:Copyright © 2009 by the Choral Public Domain Library (http://www.cpdl.org)
Z:Edition may be freely distributed, duplicated, performed, or recorded.
%%score 1 { ( 2 5 ) | ( 3 4 ) }
L:1/8
Q:1/4=100
M:2/4
K:C
V:1 treble nm="Voice" snm="Voice"
V:2 bass nm="Piano" snm="Pno."
V:5 bass 
V:3 bass 
V:4 bass 
V:1
"^Allegretto scherzando" z4 | z4 | z4 | z4 | z4 | _AA _ee | _EE/E/ _A2 | =AA!<(! BB | %8
w: |||||Sca- ra- mouche et|Pul- ci- nel- la|Qu'un mau- vais des-|
 cc/c/ d2!<)! | .e.e !>!ff | ee/e/ !>!ff | (3z!mf! .e.c (3.G.G.G |!>(! AG/F/ E2-!>)! | %13
w: sein ras- sem- bla|Ges- ti- cu- lent,|noirs sous la lu- ne,|la la la la la|la _ _ _|
 (3E!<(!DE (3FEF!<)! |!>(! (3(GAG) (3(FGF)!>)! | E4 | z4 | z4 | z4 | z4 | z4 | z !tenuto!e2 (_e | %22
w: _ la la la la la|la _ _ la _ _|la.||||||Ce- pen-|
 d).^c/.c/ d^d | e!<(!!>!f/=d/!<)! (f2- |!>(! f2!>)! d2) | _BB cf | d2 c2 | _B2 B z | %28
w: dant l'ex- cel- lent doc-|teur Bo- lo- nais|_ _|cueille a- vec len-|teur Des|sim- ples|
 z _A!<(! (3A_B!<)!c |!f! ((d3 ^c |!>(! =cB c!>)!^c) | d4- | d2) z2 | z2 .G.A | (c2 A2) | z _B dB | %36
w: par- mi l'her- be|bru- *||ne.|_|Lors sa|fil- le,|pi- quant mi-|
 G2!<(! (G2!<)! |!>(! (3(ag)e d2-!>)! | d2 c2) | z (_B/d/) (B(A/B/) | G2)!<)!!<(! (G2 | %41
w: nois, Sous|la _ char- mil-|* le,|en _ ta- pi- *|nois, Se|
!p! .e).c .G.G | (AG/F/ E2- |!<(! (3E)DE (3FEF!<)! |!>(! (3(GAG) (3(FGF)!>)! | E4- | E2 (E2 | (A4 | %48
w: glis- se de- mi|nu- * * e|_ la la la la la|la la la la la la|la|_ en|quê-|
 B)^G) (3(^FGE) |!<(! (3(^F^GA)!<)!!>(! (3(cB)A!>)! | (3B.^G.^F G2 | z2 (A2 |"^cresc." B2 ^ce | %53
w: * te De _ _|son _ _ beau _ pi-|rate es- pa- gnol,|Dont|un a- mou-|
 B2 AE | B3 A) |!mf! e2!<(! e_e | d^c d^d!<)! |!>(! (e4!>)! |!pp!!>(! a4 | A)!>)! z z2 | z4 | z4 | %62
w: reux ros- si-|gnol _|Cla- me la|dé- tresse à tue-|tê|_|te.|||
 z4 | z4 | z4 |!p! z!<(! (G/B/)!<)!!>(! G2-!>)! | G4 | z!p! (E/!>(!G/ E2-!>)! |!pp! E4- | E) z z2 | %70
w: |||la _ la|_|la. _ _|_||
 z4 | z4 |] %72
w: ||
V:2
 (^C/A,/C/A,/ C/A,/)(=C/_A,/) | (B,/G,/)(^A,/^F,/) (B,/G,/)(C/_A,/) | (^C/A,/D/_B,/ D/B,/D/B,/ | %3
 D/_B,/)(^C/A,/) !>![_A,=C]2- |"^dim." [A,C]4- |!pp! [A,C]4- | [A,C]4 | %7
!p! z/ ([CE=A]/A,/[CEA]/) z/ ([DGB]/B,/[DGB]/) | z/ ([FAc]/C/[FAc]/) z/ ([F_Bd]/D/[FBd]/) | %9
 z/!<(! ([^G=Be]/E/!<)![GBe]/) z/ ([_Bdf]/F/[Bdf]/) | %10
 z/!<(! ([^G=Be]/E/!<)![GBe]/) z/ ([_Bdf]/F/[Bdf]/) | %11
!mf! z/ ([=Gce]/E/[Gce]/) z/ ([G=Bd]/D/[GBd]/) | %12
 z/!>(! ([EAc]/C/[EAc]/) z/!>)! ([B,EG]/G,/[B,EG]/) | %13
 z/!<(! ([B,EG]/G,/[B,EG]/) z/ ([CFA]/A,/!<)![CFA]/) | %14
 z/!>(! [DGB]/B,/[DGB]/ z/ [CFA]/A,/!>)![CFA]/ | z/!p! E/E,/E/ z/ E/E,/E/ | %16
"^dim." z/ E/E,/E/ z/ E/E,/E/ | (^C/A,/C/A,/ C/A,/)(=C/_A,/) | %18
 (B,/G,/)(^A,/^F,/) (B,/G,/)(C/_A,/) | (^C/A,/D/_B,/ D/B,/D/B,/ | %20
"^dim." D/_B,/)(^C/A,/) (=C/_A,/C/A,/) | (^C/A,/C/A,/ C/A,/)(=C/_A,/) | %22
 (B,/G,/)(^A,/^F,/) (B,/G,/)(C/_A,/) | (^C/A,/!<(!D/_B,/!<)!!>(! D/B,/D/!>)!B,/) | %24
 (D/_B,/D/B,/ D/B,/D/B,/) |!pp! z/ ([_B,DF]/F,/[B,DF]/) z/ ([C_E_A]/_A,/[CEA]/) | %26
 z/ ([_B,DF]/F,/[B,DF]/) z/ ([C_E_A]/_A,/[CEA]/) | z/ ([_B,DF]/F,/[B,DF]/) z/ ([B,DF]/F,/[B,DF]/) | %28
 z/ (([C_E_A]/_A,/[CEA]/)) z/ ([CEA]/A,/[CEA]/) | [dbd']3 [^c^a^c'] | %30
!>(! [=c=a=c'][B^gb] [cac']!>)![^c^a^c'] | [bd']!mf! D/!<(!F/ (D2-!<)! |!>(! D2 G,2)!>)! | %33
 !>![EG]/G,/[EG]/G,/ [EG]/G,/([^D^F]/G,/) | ([=D=F]/G,/)([^CE]/G,/) ([DF]/G,/)([^D^F]/!pp!G,/) | %35
 !arpeggio!G z !arpeggio!G z | !arpeggio!G z !arpeggio!G z | %37
 !>![EG]/G,/[EG]/G,/ [EG]/G,/([^D^F]/G,/) | ([=D=F]/G,/)([^CE]/G,/) ([DF]/G,/)([^D^F]/G,/) | %39
!pp! !arpeggio!G z !arpeggio!G z | !arpeggio!G z !arpeggio!G z | %41
 z/ [Gce]/E/[Gce]/ z/ [GBd]/D/[GBd]/ | z/ [EAc]/C/[EAc]/ z/ [B,EG]/G,/[B,EG]/ | %43
 z/ [B,EG]/G,/[B,EG]/ z/ [CFA]/A,/[CFA]/ | z/!>(! [DGB]/B,/[DGB]/ z/ [CFA]/A,/!>)![CFA]/ | %45
!p! z/ E/E,/E/"^dim." z/ E/E,/E/ | z/ E/E,/E/ z/ E/E,/E/ | %47
!<(! z/ [CE]/^F,/[CE]/!<)! z/ [CE]/F,/[CE]/ |!<(! z/ [DE]/^G,/[DE]/!<)! z/ [DE]/G,/[DE]/ | %49
!<(! z/ [CE]/^F,/[CE]/!<)! z/ [CE]/F,/[CE]/ |!<(! z/ [DE]/^G,/[DE]/!<)! z/ [DE]/G,/[DE]/ | %51
 z/ [D=GB]/B,/[DGB]/ z/ [^CGA]/A,/[CGA]/ | z/!<(! [DGB]/B,/[DGB]/ z/ [GBe]/E/[Gce]/!<)! | %53
 z/ [DGB]/B,/[DGB]/ z/ [^CGA]/A,/[CGA]/ |!<(! z/ [DGB]/B,/[DGB]/ z/ [GBe]/E/!<)!A/ |!mf! T_A4 | %56
 T_A4 | T=A4 | %58
 (7:4:7A3/4B/4"^glissando"c/d/e/f/g/ (11:8:11a/4b/4c'/4d'/4e'/4f'/4g'/4a/4b/4c'/4d'/4 | %59
 .e'' [ae']/e/!<(! [ae']/e/[a^d']/^d/ | [a=d']/=d/[a^c']/!<)!^c/ [ad']/d/[a^d']/^d/ | %61
 ([ae']/e/[ae']/!<(!e/) ([ae']/!<)!!>(!e/[ae']/e/)!>)! | ([ae']/e/[ae']/e/) ([ae']/e/[ae']/e/) | %63
 ([Ae]/E/[Ae]/E/) ([Ae]/E/[Ae]/E/) | ([Ae]/E/[Ae]/E/) ([Ae]/E/[Ae]/E/) | x4 | x4 | x4 | x4 | %69
 [A,,E,] z A,,, z | z2 A,,, z | A,,, z z2 |] %72
V:3
{A,,,A,,} E,3 ._E, | .D,.^C, .D,._E, | .=E,!<(!F,/_A,/!<)!!>(! F,2-!>)! | F,E, !>!_E,2- | E,4- | %5
 E,4- | E,4 | .[=A,,,=A,,] z .[=G,,,=G,,] z | .[F,,,F,,] z [_B,,,_B,,] z | %9
 .=B,,.E,, !>![_A,_B,D]._B,, | .=B,,.E,, !>![_A,_B,D]._B,, | .C,.C .G,.G,, | .A,,.A, E,2- | %13
 [E,,E,]2 [D,,F,]2 | [C,,G,]2 [D,,F,]2 | .[E,,E,] z !>!E, z | E, z !>!E, z |{A,,,A,,} E,3 ._E, | %18
 .D,.^C, .D,._E, | .=E,F,/_A,/ F,2- | F,E, _E,2 |{A,,,A,,} =E,3 ._E, | .D,.^C, .D,._E, | %23
 .=E,F,/_A,/ F,2- |!>(! F,4!>)! | [_A,,,_A,,] z [F,,,F,,] z | [_A,,,_A,,] z [F,,,F,,] z | %27
 [_A,,,_A,,] z _A, z | [_A,,,_A,,] z F, z | D,4- | D,4 | D,4- | D,4 |{C,,G,,} !>!G,3 .^F, | %34
 .=F,.E, .F,.^F, | [D,,G,,=F,] z [D,,G,,F,] z | [D,,G,,F,] z [D,,G,,F,] z |{C,,G,,} !>!G,3 .^F, | %38
 .=F,.E, .F,.^F, | [D,,G,,=F,] z [D,,G,,F,] z | [D,,G,,F,] z [D,,G,,F,] z | .C z .G, z | %42
 .A, z .E,2- | [E,,E,]2 [D,,F,]2 | [C,,G,]2 [D,,F,]2 | [E,,E,] z E, z | !>!E, z E, z | %47
 [D,,A,,]2 .E,.A,, | [E,,B,,]2 .E,.B,, | [D,,A,,]2 .E,.A,, | [E,,B,,]2 .E,.B,, | [A,,,A,,] z E,2 | %52
 G,2 A,2 | [A,,,A,,] z E,2 | G,2 A,2 | [_B,,,F,,] z ._B,,!<(! z | .F, z ._B, z!<)! |!>(! A,4-!>)! | %58
!pp! A,4 | A,,, z [E,A,B,E]2 | [F,A,B,F]2 [^F,A,B,^F]2 | [G,A,B,G]4- | [G,A,B,G]4 | %63
 z D-!<)!!<(!!>(! D2-!>)! | D4 | %65
!p!"^dim." .E,,/[I:staff -1].E,/[I:staff +1].E,,/[I:staff -1].E,/[I:staff +1] .E,,/[I:staff -1].E,/[I:staff +1]._E,,/[I:staff -1]._E,/ | %66
[I:staff +1] .D,,/[I:staff -1].D,/[I:staff +1].^C,,/[I:staff -1].^C,/[I:staff +1] .D,,/[I:staff -1].D,/[I:staff +1].^D,,/[I:staff -1].^D,/ | %67
!pp![I:staff +1] .E,,/[I:staff -1].E,/[I:staff +1].E,,/[I:staff -1].E,/[I:staff +1] .E,,/[I:staff -1].E,/[I:staff +1]._E,,/[I:staff -1]._E,/ | %68
[I:staff +1] ._D,,/[I:staff -1]._D,/[I:staff +1].C,,/[I:staff -1].C,/[I:staff +1] .B,,,/[I:staff -1].B,,/[I:staff +1]._B,,,/[I:staff -1]._B,,/ | %69
[I:staff +1] A,,,/E,,/A,,,/E,,/!8vb(! A,,,,/E,,,/A,,,,/E,,,/ | %70
 A,,,,/E,,,/A,,,,/E,,,/ .A,,,,.E,,,!8vb)! | A,,,, z z2 |] %72
V:4
 x4 | x4 | x4 | x2 _G,,/_A,,/G,,/_E,,/ | _G,,/_A,,/G,,/_E,,/ G,,/A,,/G,,/E,,/ | %5
 _G,,/_A,,/G,,/_E,,/ G,,/A,,/G,,/E,,/ | _G,,/_A,,/G,,/_E,,/ G,,/A,,/G,,/E,,/ | x4 | x4 | x4 | x4 | %11
 x4 | x4 | x4 | x4 | x4 | x4 | x4 | x4 | x4 | x4 | x4 | x4 | x4 | x4 | x4 | x4 | x4 | x4 | %29
 F,,/G,,/F,,/D,,/ F,,/G,,/F,,/D,,/ | F,,/G,,/F,,/D,,/ F,,/G,,/F,,/D,,/ | %31
 F,,/G,,/F,,/D,,/ F,,/G,,/F,,/D,,/ | F,,/G,,/F,,/D,,/ F,,/G,,/F,,/D,,/ | x4 | x4 | x4 | x4 | x4 | %38
 x4 | x4 | x4 | x4 | x4 | x4 | x4 | x4 | x4 | x4 | x4 | x4 | x4 | x4 | x4 | x4 | x4 | x4 | x4 | %57
 G,4 | F,4 | x4 | x4 | x4 | x4 | z G,/B,/ G,2- | G,4 | x2 E,,2- | E,,4 | x2 E,,2- | E,,4 | %69
 x2!8vb(! x2 | x4!8vb)! | x4 |] %72
V:5
 x4 | x4 | x4 | x4 | x4 | x4 | x4 | x4 | x4 | x4 | x4 | x4 | x4 | x4 | x4 | x4 | x4 | x4 | x4 | %19
 x4 | x4 | x4 | x4 | x4 | x4 | x4 | x4 | x4 | x4 | x4 | x4 | d[G,B,] [G,B,]2- | [G,B,]2 x2 | x4 | %34
 x4 | =D/_B,/G,/A,/ D/B,/G,/A,/ | D/=B,/G,/A,/ D/B,/G,/A,/ | x4 | x4 | =D/_B,/G,/A,/ D/B,/G,/A,/ | %40
 D/=B,/G,/A,/ D/B,/G,/A,/ | x4 | x4 | x4 | x4 | x4 | x4 | x4 | x4 | x4 | x4 | x4 | x4 | x4 | x4 | %55
 D4- | D4 | (E4 | D) z z2 | x4 | x4 | z (B/d/ B2-) | B4 | x4 | x4 | x4 | x4 | x4 | x4 | x4 | x4 | %71
 x4 |] %72

